blockchains/elrond/assets/OFE-29eb54/logo.svg

<svg fill="none" height="262" viewBox="0 0 262 262" width="262" xmlns="http://www.w3.org/2000/svg" xmlns:xlink="http://www.w3.org/1999/xlink"><linearGradient id="a" gradientUnits="userSpaceOnUse" x1=".000012" x2="262" y1="128.5" y2="128.5"><stop offset="0" stop-color="#bcbeff"/><stop offset=".151" stop-color="#a3a7f5"/><stop offset=".3866" stop-color="#8289e8"/><stop offset=".6124" stop-color="#6a73df"/><stop offset=".8221" stop-color="#5c66d9"/><stop offset="1" stop-color="#5761d7"/></linearGradient><path d="m184.561 13.4225c-33.898-.6018-63.126 10.6833-86.9303 34.6079-19.2844 19.2601-30.2825 42.7333-33.145 69.9686-5.8758 56.877 30.1318 101.265 66.8923 116.463-24.105-22.119-38.2671-49.204-39.9243-82.157-1.6573-32.952 9.0393-61.6918 31.6383-85.7669 34.953-37.0154 86.479-43.4855 124.294-27.8368-8.286 0-16.572 0-25.913 0 4.821 6.0188 9.039 11.1348 12.806 16.5516 3.766 5.4169 6.93 11.2852 10.094 17.304-28.173-12.3385-55.593-12.0375-81.657 4.3636-18.984 11.887-31.338 29.1905-36.159 51.1595-4.971 22.119-1.356 43.185 11.149 62.294 8.588 13.091 19.887 23.323 34.802 29.944-32.241-40.477-34.651-80.501 2.11-118.269 22.9-23.6238 58.003-26.4827 83.013-16.4013-.151.1505-.151.4514-.301.4514-6.78.7524-6.629.6019-4.972 7.373 1.506 5.8683 2.561 11.8869 3.917 17.9059.151 1.053.151 2.106.151 3.611-18.983-9.329-37.364-9.63-54.991 1.655-12.053 7.674-19.736 18.809-23.051 32.803-6.478 28.438 12.806 53.567 30.132 58.532-11.299-11.887-16.874-25.58-15.518-41.379.904-11.285 5.122-21.367 12.655-29.943 13.861-15.95 37.816-22.27 56.347-14.596-4.369 0-4.821 2.107-4.821 5.267 0 30.846-9.642 58.532-29.077 82.457-19.435 23.774-44.445 39.122-74.426 44.689-44.294 8.125-83.6159-3.31-115.857-34.909-24.7082-23.924-37.664863-54.169-37.81552256-88.927-.30131844-45.8931 18.98312256-82.3066 56.34662256-108.4883 25.3107-17.60483 53.9359-24.37594 84.8209-21.517029 13.861 1.203749 26.968 4.965479 39.624 10.382329 1.054.4514 2.26 1.0533 3.314 1.6552.151 0 .301.1505.452.7523z" fill="url(#a)"/></svg>

<svg width="262" height="262" viewBox="0 0 262 262" fill="none" xmlns="http://www.w3.org/2000/svg">
<path d="M184.561 13.4225C150.663 12.8207 121.435 24.1058 97.6307 48.0304C78.3463 67.2905 67.3482 90.7637 64.4857 117.999C58.6099 174.876 94.6175 219.264 131.378 234.462C107.273 212.343 93.1109 185.258 91.4537 152.305C89.7964 119.353 100.493 90.6132 123.092 66.5381C158.045 29.5227 209.571 23.0526 247.386 38.7013C239.1 38.7013 230.814 38.7013 221.473 38.7013C226.294 44.7201 230.512 49.8361 234.279 55.2529C238.045 60.6698 241.209 66.5381 244.373 72.5569C216.2 60.2184 188.78 60.5194 162.716 76.9205C143.732 88.8075 131.378 106.111 126.557 128.08C121.586 150.199 125.201 171.265 137.706 190.374C146.294 203.465 157.593 213.697 172.508 220.318C140.267 179.841 137.857 139.817 174.618 102.049C197.518 78.4252 232.621 75.5663 257.631 85.6477C257.48 85.7982 257.48 86.0991 257.33 86.0991C250.55 86.8515 250.701 86.701 252.358 93.4721C253.864 99.3404 254.919 105.359 256.275 111.378C256.426 112.431 256.426 113.484 256.426 114.989C237.443 105.66 219.062 105.359 201.435 116.644C189.382 124.318 181.699 135.453 178.384 149.447C171.906 177.885 191.19 203.014 208.516 207.979C197.217 196.092 191.642 182.399 192.998 166.6C193.902 155.315 198.12 145.233 205.653 136.657C219.514 120.707 243.469 114.387 262 122.061C257.631 122.061 257.179 124.168 257.179 127.328C257.179 158.174 247.537 185.86 228.102 209.785C208.667 233.559 183.657 248.907 153.676 254.474C109.382 262.599 70.0601 251.164 37.819 219.565C13.1108 195.641 0.154137 165.396 0.00347744 130.638C-0.297841 84.7449 18.9866 48.3314 56.3501 22.1497C81.6608 4.54487 110.286 -2.22624 141.171 0.632671C155.032 1.83642 168.139 5.59815 180.795 11.015C181.849 11.4664 183.055 12.0683 184.109 12.6702C184.26 12.6702 184.41 12.8207 184.561 13.4225Z" fill="url(#paint0_linear_112_11273)"/>
<defs>
<linearGradient id="paint0_linear_112_11273" x1="1.22752e-05" y1="128.5" x2="262" y2="128.5" gradientUnits="userSpaceOnUse">
<stop stop-color="#BCBEFF"/>
<stop offset="0.151" stop-color="#A3A7F5"/>
<stop offset="0.3866" stop-color="#8289E8"/>
<stop offset="0.6124" stop-color="#6A73DF"/>
<stop offset="0.8221" stop-color="#5C66D9"/>
<stop offset="1" stop-color="#5761D7"/>
</linearGradient>
</defs>
</svg>
